polaris-icons/icons/new-icons/FirstClickModelMinor.svg

<svg width="20" height="20" viewBox="0 0 20 20" fill="none" xmlns="http://www.w3.org/2000/svg">
<path d="M4.75 4.25C4.75 3.83579 4.41421 3.5 4 3.5C3.58579 3.5 3.25 3.83579 3.25 4.25V15.75C3.25 16.1642 3.58579 16.5 4 16.5C4.41421 16.5 4.75 16.1642 4.75 15.75V4.25Z" fill="#4A4A4A"/>
<path d="M8 9C8.41421 9 8.75 9.33579 8.75 9.75V15.75C8.75 16.1642 8.41421 16.5 8 16.5C7.58579 16.5 7.25 16.1642 7.25 15.75V9.75C7.25 9.33579 7.58579 9 8 9Z" fill="#4A4A4A"/>
<path d="M12.75 9.75C12.75 9.33579 12.4142 9 12 9C11.5858 9 11.25 9.33579 11.25 9.75V15.75C11.25 16.1642 11.5858 16.5 12 16.5C12.4142 16.5 12.75 16.1642 12.75 15.75V9.75Z" fill="#4A4A4A"/>
<path d="M16.75 9.75C16.75 9.33579 16.4142 9 16 9C15.5858 9 15.25 9.33579 15.25 9.75V15.75C15.25 16.1642 15.5858 16.5 16 16.5C16.4142 16.5 16.75 16.1642 16.75 15.75V9.75Z" fill="#4A4A4A"/>
</svg>

<svg viewBox="0 0 20 20" xmlns="http://www.w3.org/2000/svg"><path d="M4.75 4.25a.75.75 0 0 0-1.5 0v11.5a.75.75 0 0 0 1.5 0v-11.5Z" fill="#5C5F62"/><path d="M8 9a.75.75 0 0 1 .75.75v6a.75.75 0 0 1-1.5 0v-6a.75.75 0 0 1 .75-.75Z" fill="#5C5F62"/><path d="M12.75 9.75a.75.75 0 0 0-1.5 0v6a.75.75 0 0 0 1.5 0v-6Z" fill="#5C5F62"/><path d="M16.75 9.75a.75.75 0 0 0-1.5 0v6a.75.75 0 0 0 1.5 0v-6Z" fill="#5C5F62"/></svg>
